svg/fluentui-system-icons/ic_fluent_call_dismiss_16_regular.svg

<svg width="16" height="16" viewBox="0 0 16 16" fill="none" xmlns="http://www.w3.org/2000/svg">
<path d="M5.75663 7.02252L6.82932 6.03859C7.43021 5.48741 7.63634 4.62664 7.35028 3.86307L6.91571 2.70309C6.54721 1.71947 5.47711 1.19226 4.47266 1.49945C2.79003 2.01405 1.43899 3.52289 1.72489 5.4077C1.92456 6.72398 2.38638 8.39754 3.40338 10.1458C4.41625 11.887 5.63026 13.1196 6.66518 13.9512C8.15263 15.1464 10.1393 14.7382 11.4292 13.5357C12.1947 12.8219 12.2729 11.6357 11.6077 10.8277L10.8162 9.86624C10.298 9.23672 9.44945 8.98484 8.67167 9.22965L7.28322 9.66666C7.22982 9.61178 7.16796 9.54615 7.1005 9.47093C6.87237 9.21657 6.58701 8.86009 6.34702 8.44441C6.10703 8.02873 5.94098 7.60336 5.83477 7.27862C5.80336 7.18258 5.77746 7.0962 5.75663 7.02252ZM2.71358 5.25773C2.52302 4.00143 3.40963 2.87028 4.76512 2.45573C5.26431 2.30306 5.79613 2.56507 5.97927 3.05391L6.41384 4.21389C6.55687 4.59568 6.4538 5.02606 6.15336 5.30165L4.86084 6.48722C4.73141 6.60594 4.67394 6.7847 4.70915 6.95677L4.72064 7.009C4.72778 7.04019 4.73829 7.08433 4.75247 7.13952C4.7808 7.24979 4.82393 7.40486 4.88432 7.58949C5.00445 7.95678 5.19599 8.45078 5.48099 8.94441C5.76599 9.43805 6.09803 9.85093 6.35605 10.1386C6.48575 10.2832 6.59848 10.3981 6.67981 10.4778C6.72052 10.5177 6.75349 10.5488 6.77693 10.5706L6.81706 10.6072C6.94847 10.7238 7.13138 10.7628 7.29891 10.7101L8.9719 10.1835C9.36079 10.0611 9.78505 10.187 10.0442 10.5018L10.8356 11.4632C11.1651 11.8634 11.1263 12.4508 10.7472 12.8042C9.71011 13.7712 8.28413 13.9692 7.29155 13.1717C6.33466 12.4028 5.20852 11.2602 4.26776 9.64298C3.32481 8.022 2.89789 6.47274 2.71358 5.25773ZM14.3536 1.64632C14.5488 1.84159 14.5488 2.15817 14.3536 2.35343L12.7071 3.99988L14.3536 5.64632C14.5488 5.84159 14.5488 6.15817 14.3536 6.35343C14.1583 6.54869 13.8417 6.54869 13.6464 6.35343L12 4.70698L10.3536 6.35343C10.1583 6.54869 9.84171 6.54869 9.64645 6.35343C9.45118 6.15817 9.45118 5.84159 9.64645 5.64632L11.2929 3.99988L9.64645 2.35343C9.45118 2.15817 9.45118 1.84159 9.64645 1.64632C9.84171 1.45106 10.1583 1.45106 10.3536 1.64632L12 3.29277L13.6464 1.64632C13.8417 1.45106 14.1583 1.45106 14.3536 1.64632Z" fill="#212121"/>
</svg>

<svg xmlns="http://www.w3.org/2000/svg" width="16" height="16"><path d="m5.757 7.023 1.072-.984a2 2 0 0 0 .521-2.176l-.434-1.16A1.988 1.988 0 0 0 4.473 1.5c-1.683.515-3.034 2.024-2.748 3.909.2 1.316.661 2.99 1.678 4.738a13.732 13.732 0 0 0 3.262 3.805c1.488 1.195 3.474.787 4.764-.415a1.98 1.98 0 0 0 .179-2.708l-.792-.962a2 2 0 0 0-2.144-.636l-1.389.437a6.604 6.604 0 0 1-.936-1.223 6.268 6.268 0 0 1-.59-1.421ZM2.714 5.258C2.523 4 3.41 2.87 4.765 2.456a.988.988 0 0 1 1.214.598l.435 1.16a1 1 0 0 1-.26 1.088L4.86 6.487a.501.501 0 0 0-.152.47l.012.052.031.13a7.265 7.265 0 0 0 .729 1.805 7.264 7.264 0 0 0 1.296 1.627l.04.036a.5.5 0 0 0 .482.103l1.673-.527a1 1 0 0 1 1.072.319l.792.961c.33.4.29.988-.089 1.341-1.037.967-2.463 1.165-3.455.368a12.732 12.732 0 0 1-3.024-3.529 12.432 12.432 0 0 1-1.554-4.385Zm11.64-3.612a.5.5 0 0 1 0 .707L12.707 4l1.647 1.646a.5.5 0 0 1-.708.707L12 4.707l-1.646 1.646a.5.5 0 0 1-.708-.707L11.293 4 9.646 2.353a.5.5 0 1 1 .708-.707L12 3.293l1.646-1.647a.5.5 0 0 1 .708 0Z"/></svg>
